X: 076
T: Ross House
B: 204 Favourite Country Dances
N: Published by Straight & Skillern, London ca.1775
F: http://imslp.org/wiki/204_Favourite_Country_Dances_(Various) p.38 #76
Z: 2014 John Chambers <jc:trillian.mit.edu>
N: Added dots to last note in each strain to fix the rhythm.
M: C|
L: 1/8
K: D
% - - - - - - - - - - - - - - - - - - - - - - - - -
f |\
d2AG FGAc | d2AF E3c |\
d2AG FGAg | (f/g/a) ef d3 :|\
|: g |\
fede =cdeg | fedf  g3a |\
fede =cdeg | f/g/a ef d2 :|
% - - - - - - - - - - - - - - - - - - - - - - - - -
%%begintext align
%% Hands across back again lead
%% down 1 Cu. up again & cast off
%% Right and Left
%%endtext

%%sep 1 1 500
%%sep 1 1 500
